X:442
T: ES KAM EIN FREMDER SCHLEIFER
N: E1640
O: Europa, Mitteleuropa, Deutschland; Frankreich, Elsass
R: Staende -, Handwerker - Lied, Scherenschleifer
M: 2/4
L: 1/16
K: F
C2 | F4F4 | G4G4 | A4A2G2 | F4z2
F2 | G4G4 | A2c2c4 | c2B2G4 | F4z4
F2G2A2B2 | c3cc4 | d4f2d2 | c8
c2B2B4 | A2c2c4 | c2B2G4 | F4z2

